azure-patterns/svg-partner.svg

<svg xmlns="http://www.w3.org/2000/svg" viewBox="0 0 113 71">
                                
                            
  <path d="M56.191,58.0225 C55.947,58.2435 55.626,58.3715 55.29,58.3715 C54.962,58.3715 54.647,58.2505 54.401,58.0315 L54.176,57.8305 C53.703,57.4115 53.603,56.7285 53.894,56.1975 C53.941,56.1115 54.001,56.0275 54.069,55.9505 L58.578,50.9155 C58.831,50.6335 59.194,50.4705 59.575,50.4705 C59.903,50.4705 60.218,50.5905 60.463,50.8095 L60.69,51.0105 C61.239,51.4995 61.287,52.3415 60.796,52.8915 L56.288,57.9255 C56.256,57.9595 56.224,57.9905 56.191,58.0225 Z M50.797,54.9715 C50.538,55.2625 50.166,55.4285 49.774,55.4285 C49.437,55.4285 49.114,55.3055 48.862,55.0815 L48.63,54.8755 C48.066,54.3725 48.016,53.5055 48.521,52.9455 L48.937,52.4795 L53.149,47.7775 C53.408,47.4885 53.782,47.3215 54.171,47.3215 C54.509,47.3215 54.833,47.4435 55.085,47.6685 L55.317,47.8755 C55.88,48.3765 55.93,49.2425 55.425,49.8045 L51.33,54.3775 L50.797,54.9715 Z M45.434,51.8205 C45.168,52.1185 44.786,52.2875 44.386,52.2875 C44.042,52.2875 43.709,52.1615 43.452,51.9325 L43.214,51.7215 C42.637,51.2075 42.587,50.3205 43.102,49.7455 L44.021,48.7185 L47.84,44.4555 C48.106,44.1585 48.487,43.9875 48.887,43.9875 C49.232,43.9875 49.564,44.1145 49.823,44.3445 L50.059,44.5545 C50.638,45.0675 50.687,45.9545 50.171,46.5305 L46.469,50.6635 L45.434,51.8205 Z M40.297,48.0955 C40.039,48.3865 39.67,48.5515 39.28,48.5515 C38.946,48.5515 38.623,48.4285 38.373,48.2075 L38.142,48.0005 C37.582,47.5015 37.532,46.6395 38.034,46.0815 L39.156,44.8195 L42.647,40.8975 C42.906,40.6095 43.276,40.4445 43.665,40.4445 C43.999,40.4445 44.322,40.5655 44.572,40.7905 L44.802,40.9935 C45.364,41.4935 45.412,42.3535 44.913,42.9135 L41.535,46.7075 L40.297,48.0955 Z M112.868,56.7985 C112.844,49.5895 106.98,43.7655 99.766,43.7905 C99.222,43.7925 98.694,43.8355 98.171,43.9025 C98.963,40.9675 99.391,37.8835 99.381,34.6975 C99.373,32.1985 99.096,29.7635 98.587,27.4165 L77.325,45.0845 L61.943,30.1245 C61.943,30.1245 61.851,30.0305 56.962,34.9055 C53.222,38.6355 48.639,35.1575 48.639,35.1575 L60.056,23.7095 L74.154,27.1025 L91.702,13.0155 C85.295,5.0525 75.463,-0.0355 64.446,0.0005 C50.726,0.0455 38.899,8.0225 33.263,19.5665 L41.993,27.0235 L55.843,23.4525 L56.584,24.6215 L45.916,35.1885 L46.054,35.4125 C46.139,35.5465 48.179,38.7245 53.311,38.7245 C56.026,38.7245 58.514,36.4075 58.587,36.3105 L61.797,33.1095 L76.223,46.5925 C76.237,46.9805 76.167,47.9515 74.825,49.0665 C73.963,49.7815 73.049,49.9315 72.432,49.9315 C71.886,49.9315 71.513,49.8145 71.51,49.8145 L71.078,49.6775 L71.078,50.1275 C71.078,50.1455 71.065,51.9045 69.849,52.6565 C69.421,52.9205 68.711,53.0605 67.791,53.0605 C66.667,53.0605 65.609,52.8515 65.598,52.8515 L65.089,52.7505 L65.212,53.2525 C65.216,53.2685 65.628,55.0215 64.394,55.7465 C63.59,56.2175 62.424,56.3165 61.589,56.3165 C61.047,56.3165 60.662,56.2735 60.659,56.2735 L60.244,56.2265 L60.292,56.6405 C60.297,56.6945 60.43,57.9445 59.327,58.4955 C58.978,58.6685 58.57,58.7555 58.114,58.7555 C57.921,58.7555 57.738,58.7405 57.57,58.7175 L62.158,53.5965 C63.186,52.4465 63.087,50.6735 61.933,49.6475 L61.681,49.4225 C61.166,48.9635 60.503,48.7115 59.814,48.7115 C59.015,48.7115 58.252,49.0535 57.72,49.6475 L52.707,55.2435 C52.69,55.2635 52.672,55.2835 52.655,55.3055 L52.406,55.1065 L56.571,50.4565 C57.602,49.3045 57.502,47.5325 56.347,46.5065 L56.338,46.5235 C55.823,46.0665 55.16,45.8125 54.47,45.8125 C53.671,45.8125 52.909,46.1545 52.378,46.7485 L47.987,51.6495 L47.716,51.3845 L51.362,47.3145 C52.391,46.1635 52.292,44.3925 51.137,43.3645 L50.885,43.1405 C50.371,42.6815 49.708,42.4295 49.018,42.4295 C48.22,42.4295 47.457,42.7705 46.924,43.3645 L43.056,47.6845 L42.795,47.4785 L46.204,43.6505 C47.233,42.4985 47.133,40.7265 45.979,39.6985 L45.727,39.4765 C45.212,39.0175 44.549,38.7655 43.86,38.7655 C43.062,38.7655 42.298,39.1065 41.765,39.7005 L38.137,43.7765 L14.238,24.5595 C5.829,28.2535 -0.032,36.6625 0.001,46.4305 C0.044,59.5695 10.732,70.1895 23.883,70.1445 L23.912,70.1445 L23.913,70.1445 L100.92,69.8955 L100.902,69.8385 C107.622,69.2835 112.889,63.6585 112.868,56.7985 Z"></path>
</svg>

<svg xmlns="http://www.w3.org/2000/svg" viewBox="0 0 113 71"><path d="M56.191 58.023a1.335 1.335 0 0 1-1.79.009l-.225-.202a1.33 1.33 0 0 1-.107-1.88l4.509-5.035c.253-.282.616-.444.997-.444.328 0 .643.12.888.339l.227.2c.549.49.597 1.332.106 1.882l-4.508 5.033c-.032.035-.064.066-.097.098zm-5.394-3.052a1.37 1.37 0 0 1-1.935.11l-.232-.206a1.364 1.364 0 0 1-.109-1.93l.416-.465 4.212-4.702a1.377 1.377 0 0 1 1.936-.11l.232.208c.563.5.613 1.367.108 1.928l-4.095 4.573-.533.594zm-5.363-3.15a1.404 1.404 0 0 1-1.982.111l-.238-.21a1.399 1.399 0 0 1-.112-1.977l.919-1.026 3.819-4.264a1.407 1.407 0 0 1 1.983-.11l.236.21c.579.513.628 1.4.112 1.976l-3.702 4.133-1.035 1.157zm-5.137-3.725a1.356 1.356 0 0 1-1.017.456c-.334 0-.657-.123-.907-.344L38.142 48a1.357 1.357 0 0 1-.108-1.92l1.122-1.262 3.491-3.922a1.369 1.369 0 0 1 1.925-.106l.23.203c.562.5.61 1.36.111 1.92l-3.378 3.794-1.238 1.388zm72.571 8.703c-.024-7.21-5.888-13.033-13.102-13.008-.544.002-1.072.045-1.595.112a34.856 34.856 0 0 0 1.21-9.206 34.846 34.846 0 0 0-.794-7.28L77.325 45.084l-15.382-14.96s-.092-.093-4.981 4.782c-3.74 3.73-8.323.252-8.323.252l11.417-11.449 14.098 3.393 17.548-14.087C85.295 5.052 75.463-.035 64.446.002c-13.72.044-25.547 8.022-31.183 19.566l8.73 7.456 13.85-3.57.741 1.169-10.668 10.566.138.224c.085.135 2.125 3.313 7.257 3.313 2.715 0 5.203-2.318 5.276-2.415l3.21-3.2 14.426 13.483c.014.387-.056 1.358-1.398 2.473a3.707 3.707 0 0 1-2.393.865c-.546 0-.919-.116-.922-.116l-.432-.137v.45c0 .017-.013 1.776-1.229 2.529-.428.264-1.138.404-2.058.404-1.124 0-2.182-.21-2.193-.21l-.509-.1.123.502c.004.016.416 1.769-.818 2.493-.804.471-1.97.57-2.805.57-.542 0-.927-.043-.93-.043l-.415-.047.048.415c.005.053.138 1.303-.965 1.855a2.71 2.71 0 0 1-1.213.26c-.193 0-.376-.016-.544-.038l4.588-5.122a2.796 2.796 0 0 0-.225-3.948l-.252-.226a2.802 2.802 0 0 0-1.867-.71c-.799 0-1.562.341-2.094.935l-5.013 5.596c-.017.02-.035.04-.052.063l-.249-.2 4.165-4.65a2.793 2.793 0 0 0-.224-3.95l-.009.017a2.809 2.809 0 0 0-3.96.225l-4.391 4.901-.271-.264 3.646-4.07a2.795 2.795 0 0 0-.225-3.95l-.252-.224a2.799 2.799 0 0 0-1.867-.712c-.798 0-1.561.341-2.094.935l-3.868 4.32-.261-.206 3.409-3.828a2.799 2.799 0 0 0-.225-3.951l-.252-.222a2.802 2.802 0 0 0-1.867-.711 2.82 2.82 0 0 0-2.095.934l-3.628 4.076L14.238 24.56C5.829 28.253-.032 36.663.001 46.431.044 59.57 10.732 70.189 23.883 70.144H23.913l77.007-.249-.018-.056c6.72-.555 11.987-6.18 11.966-13.04z"/></svg>
